packages/ffe-icons/icons/filled/md/screenshot_frame.svg

<svg xmlns="http://www.w3.org/2000/svg" height="24" viewBox="0 -960 960 960" width="24"><path d="M250.001-680q-12.769 0-21.384-8.615-8.616-8.615-8.616-21.384v-77.692q0-30.308 21-51.308t51.308-21h77.692q12.769 0 21.384 8.616Q400-842.768 400-829.999t-8.615 21.384Q382.77-800 370.001-800h-77.692q-4.616 0-8.463 3.846-3.846 3.847-3.846 8.463v77.692q0 12.769-8.615 21.384T250.001-680Zm42.308 579.999q-30.308 0-51.308-21t-21-51.308v-77.692q0-12.769 8.616-21.384Q237.232-280 250.001-280t21.384 8.615Q280-262.77 280-250.001v77.692q0 4.616 3.846 8.463 3.847 3.846 8.463 3.846h77.692q12.769 0 21.384 8.615T400-130.001q0 12.769-8.615 21.384-8.615 8.616-21.384 8.616h-77.692ZM709.999-680q-12.769 0-21.384-8.615T680-709.999v-77.692q0-4.616-3.846-8.463-3.847-3.846-8.463-3.846h-77.692q-12.769 0-21.384-8.615T560-829.999q0-12.769 8.615-21.384 8.615-8.616 21.384-8.616h77.692q30.308 0 51.308 21t21 51.308v77.692q0 12.769-8.616 21.384Q722.768-680 709.999-680Zm-120 579.999q-12.769 0-21.384-8.616Q560-117.232 560-130.001t8.615-21.384Q577.23-160 589.999-160h77.692q4.616 0 8.463-3.846 3.846-3.847 3.846-8.463v-77.692q0-12.769 8.615-21.384T709.999-280q12.769 0 21.384 8.615 8.616 8.615 8.616 21.384v77.692q0 30.308-21 51.308t-51.308 21h-77.692Z"/></svg>

<svg xmlns="http://www.w3.org/2000/svg" height="24" viewBox="0 -960 960 960" width="24"><path d="M250-680q-12.77 0-21.38-8.62Q220-697.23 220-710v-77.69Q220-818 241-839q21-21 51.31-21H370q12.77 0 21.38 8.62Q400-842.77 400-830t-8.62 21.38Q382.77-800 370-800h-77.69q-4.62 0-8.46 3.85-3.85 3.84-3.85 8.46V-710q0 12.77-8.62 21.38Q262.77-680 250-680Zm42.31 580Q262-100 241-121q-21-21-21-51.31V-250q0-12.77 8.62-21.38Q237.23-280 250-280t21.38 8.62Q280-262.77 280-250v77.69q0 4.62 3.85 8.46 3.84 3.85 8.46 3.85H370q12.77 0 21.38 8.62Q400-142.77 400-130t-8.62 21.38Q382.77-100 370-100h-77.69ZM710-680q-12.77 0-21.38-8.62Q680-697.23 680-710v-77.69q0-4.62-3.85-8.46-3.84-3.85-8.46-3.85H590q-12.77 0-21.38-8.62Q560-817.23 560-830t8.62-21.38Q577.23-860 590-860h77.69Q698-860 719-839q21 21 21 51.31V-710q0 12.77-8.62 21.38Q722.77-680 710-680ZM590-100q-12.77 0-21.38-8.62Q560-117.23 560-130t8.62-21.38Q577.23-160 590-160h77.69q4.62 0 8.46-3.85 3.85-3.84 3.85-8.46V-250q0-12.77 8.62-21.38Q697.23-280 710-280t21.38 8.62Q740-262.77 740-250v77.69Q740-142 719-121q-21 21-51.31 21H590Z"/></svg>
